!!!COM: Palestrina, Giovanni Perluigi da
!!!OPR: De Beata Marie Virginis (III)
!!!OTL: Agnus
**kern	**kern	**kern	**kern	**kern
*Ibass	*Itenor	*Itenor	*Icalto	*Icant
!Bassus	!Tenor 2	!Tenor 1	!Altus	!Cantus
*clefF4	*clefGv2	*clefGv2	*clefG2	*clefG2
*k[]	*k[]	*k[]	*k[]	*k[]
*G:mix	*G:mix	*G:mix	*G:mix	*G:mix
*M4/2	*M4/2	*M4/2	*M4/2	*M4/2
=1	=1	=1	=1	=1
0r	0r	0r	1r	1g
.	.	.	1d	[1dd
=2	=2	=2	=2	=2
0r	0r	0r	1g	2dd]
.	.	.	.	2b
.	.	.	2e	[1cc
.	.	.	2f	.
=3	=3	=3	=3	=3
0r	0r	0r	2.g	2cc]
.	.	.	.	4b
.	.	.	4f	4a
.	.	.	4g	4b
.	.	.	4f	4cc
.	.	.	4f	[2dd
.	.	.	8e	.
.	.	.	8d	.
=4	=4	=4	=4	=4
0r	1r	0r	1e	2dd]
.	.	.	.	2cc
.	1G	.	2d	1b
.	.	.	[2g	.
=5	=5	=5	=5	=5
1D	1.d	0r	2g]	1a
.	.	.	2f#	.
1G	.	.	[1g	2.b
.	2B	.	.	.
.	.	.	.	4a
=6	=6	=6	=6	=6
2E	1.c	1r	2g]	2g
2F	.	.	4f	2a
.	.	.	4e	.
2.G	.	1d	2d	1g
.	4B	.	[2G	.
4F	4A	.	.	.
=7	=7	=7	=7	=7
4G	4B	1.g	4G]	0r
4F	4c	.	4A	.
4E	1d	.	1B	.
4D	.	.	.	.
1E	.	.	.	.
.	2c#	2e	2G	.
=8	=8	=8	=8	=8
2.D	2.d	1.f	2A	0r
.	.	.	1a	.
4E	8c	.	.	.
.	8B	.	.	.
2F	2A	.	.	.
2G	2B	4e	[2g	.
.	.	4d	.	.
=9	=9	=9	=9	=9
1C	2.c	4e	4g]	1g
.	.	4f	4f	.
.	.	1g	2e	.
.	4B	.	.	.
1D	1A	.	2.d	[1dd
.	.	2f#	.	.
.	.	.	4c	.
=10	=10	=10	=10	=10
1G	2G	2g	4B	2dd]
.	.	.	4G	.
.	2B	2d	1g	2b
1r	1A	2e	.	[1cc
.	.	2c	2f#	.
=11	=11	=11	=11	=11
0r	2G	2d	1g	2cc]
.	2.g	2.e	.	4b
.	.	.	.	4a
.	.	.	2r	2b
.	4f	4d	.	.
.	2e	[2c	[2g	2cc
=12	=12	=12	=12	=12
1G	1d	2c]	2g]	1dd
.	.	2B	2g	.
1A	1r	2c	2e	1cc
.	.	2A	2f#	.
=13	=13	=13	=13	=13
1B	1d	2G	0g	0r
.	.	2.g	.	.
2.c	1e	.	.	.
.	.	4f	.	.
.	.	4e	.	.
4B	.	4d	.	.
=14	=14	=14	=14	=14
2A	1f#	1c	0r	1a
2A	.	.	.	.
2.G	[1g	1d	.	1b
4F	.	.	.	.
=15	=15	=15	=15	=15
1E	2g]	1e	1g	1cc#
.	2g	.	.	.
1D	1f	1A	1a	1dd
=16	=16	=16	=16	=16
1r	2d	1r	2b-	2dd
.	2.f	.	2a	2cc
2r	.	1d	2.f	2a
.	4e	.	.	.
2D	[2d	.	.	[2ff
.	.	.	4g	.
=17	=17	=17	=17	=17
1A	2d]	1e	1a	2ff]
.	2c#	.	.	2.ee
1D	1d	1f#	1a	.
.	.	.	.	4dd
.	.	.	.	[2dd
=18	=18	=18	=18	=18
1r	1e	2g	2r	2dd]
.	.	2g	2g	2cc#
2r	2d	2f	2a	[1dd
2G	2G	2d	2b-	.
=19	=19	=19	=19	=19
2F	2A	2.f	2a	1dd]
2D	2B-	.	4f	.
.	.	4e	4g	.
2.F	2A	2d	4a	1r
.	.	.	4b-	.
.	4F	2c	2a	.
4E	4G	.	.	.
=20	=20	=20	=20	=20
2D	4A	2d	4f	0r
.	4F	.	4d	.
2C	2c	2.e	2.g	.
1D	2B-	.	.	.
.	.	4d	4f	.
.	2A	[2d	2f	.
=21	=21	=21	=21	=21
1E	2G	2d]	2.g	1r
.	1g	2c#	.	.
.	.	.	4a	.
4D	.	1d	2b-	2r
4E	.	.	.	.
4F	2f	.	[2a	[2dd
4G	.	.	.	.
=22	=22	=22	=22	=22
1A	1.e	0r	4a]	2dd]
.	.	.	4g	.
.	.	.	4e	2cc
.	.	.	4f#	.
1G	.	.	1g	1b
.	2d	.	.	.
=23	=23	=23	=23	=23
1C	2.e	2r	0r	2.g
.	.	1g	.	.
.	4f#	.	.	4a
1r	2g	.	.	2b
.	[2a	2f	.	[2cc
=24	=24	=24	=24	=24
0r	4a]	1e	0r	2cc]
.	4g	.	.	.
.	1g	.	.	2b
.	.	2c	.	1a
.	2f#	[2d	.	.
=25	=25	=25	=25	=25
1.G	1g	4d]	0r	2.b
.	.	4c	.	.
.	.	4B	.	.
.	.	4A	.	4cc
.	1d	2B	.	1dd
2F	.	2A	.	.
=26	=26	=26	=26	=26
1E	2c	1.e	2r	0r
.	2B	.	1g	.
2C	1A	.	.	.
2D	.	2d	2f	.
=27	=27	=27	=27	=27
2E	2G	2.c	2e	1r
1F	4A	.	2c	.
.	4G	4B	.	.
.	4A	2A	2d	2r
.	4B	.	.	.
2E	[2c	2G	2e	[2gg
=28	=28	=28	=28	=28
1D	4c]	1d	2.f	2gg]
.	8B	.	.	.
.	8A	.	.	.
.	2B	.	.	2ff
.	.	.	4g	.
2C	2.c	1e	2a	1ee
[2c	.	.	4g	.
.	4d	.	4f	.
=29	=29	=29	=29	=29
2c]	2e	2r	1g	2cc
2B-	2d	2g	.	2.dd
1A	1a	2f	2r	.
.	.	.	.	4cc
.	.	2e	[2a	[2cc
=30	=30	=30	=30	=30
2F	0r	1d	2a]	2cc]
2G	.	.	2g	2b-
1A	.	1c	2f	2a
.	.	.	2e	[2cc
=31	=31	=31	=31	=31
1G	2r	2d	2.g	2cc]
.	1d	2G	.	2b-
.	.	.	4f	.
1r	.	1A	1e	1a
.	2c	.	.	.
=32	=32	=32	=32	=32
2r	1B	4G	2g	2.dd
.	.	4A	.	.
1G	.	4B	4G	.
.	.	4c	4A	4cc
.	2G	1d	4B	2b
.	.	.	4c	.
2F	2A	.	2d	2a
=33	=33	=33	=33	=33
1E	2B	2r	1.e	2.g
.	2.c	1g	.	.
.	.	.	.	4f
2C	.	.	.	2e
.	4B	.	.	.
2D	2A	2f	4d	2f
.	.	.	4c	.
=34	=34	=34	=34	=34
1E	1G	2e	4B	1g
.	.	.	4G	.
.	.	2c	1g	.
1D	1A	1d	.	1dd
.	.	.	2f#	.
=35	=35	=35	=35	=35
[0G	[0G	[0d	[0g	[0b
=36	=36	=36	=36	=36
0G]	0G]	0d]	0g]	0b]
==	==	==	==	==
*-	*-	*-	*-	*-
!!!CDT: 1525/^1526/-1594/2/2
!!!OCY: Italia
!!!AGN: Mass (Paraphrase)
!!!AST: renaissance, vocal
!!!ASW: Gregorian Mass
!!!PWK: Masses, Book Mantuan I
!!!RNB: Cadence finals: D
!!!YOR: Le Opere Complete, v. 18, p. 162
!!!YOO: Rome, Italy: Fratelli Scalera
!!!END: 1992//
!!!EED: John Miller
!!!YEC: Copyright 2000, John Miller
!!!YEN: United States of America
!!!YEM: Rights to all derivative electronic formats reserved.
!!!YEM: Refer to licensing agreement for further details.
!!!YEM: This file must be accompanied by the licensing agreement.
!!!YEM: A copy of the licensing agreement may be found at http://www.music-cog.ohio-state.edu/HumdrumDatabases/Palestrina/license.txt
!!!EMD: converted to Humdrum by Bret Aarden
